flaticon/constructions/screw.svg

<svg xmlns="http://www.w3.org/2000/svg" width="32" height="32" viewBox="0 0 24 24">
    <path d="M 13.589844 2.398438 C 13.710938 2.398438 13.832031 2.359375 13.910156 2.238281 L 15.109375 0.640625 C 15.191406 0.519531 15.230469 0.359375 15.152344 0.238281 C 15.070312 0.078125 14.953125 0 14.792969 0 L 9.191406 0 C 9.03125 0 8.871094 0.121094 8.832031 0.238281 C 8.792969 0.359375 8.792969 0.519531 8.871094 0.640625 L 10.070312 2.238281 C 10.152344 2.359375 10.269531 2.398438 10.390625 2.398438 L 10.792969 2.398438 L 10.792969 3.269531 L 10.511719 3.199219 C 10.269531 3.160156 10.070312 3.28125 9.992188 3.519531 C 9.953125 3.71875 10.070312 3.921875 10.3125 4 L 10.792969 4.121094 L 10.792969 4.910156 L 10.511719 4.839844 C 10.3125 4.761719 10.070312 4.921875 10.03125 5.121094 C 9.953125 5.320312 10.113281 5.558594 10.3125 5.601562 L 10.792969 5.71875 L 10.792969 6.511719 L 10.511719 6.441406 C 10.3125 6.359375 10.070312 6.519531 10.03125 6.71875 C 9.953125 6.921875 10.113281 7.160156 10.3125 7.199219 L 10.792969 7.320312 L 10.792969 8.109375 L 10.511719 8.039062 C 10.3125 7.960938 10.070312 8.121094 10.03125 8.320312 C 9.953125 8.519531 10.113281 8.761719 10.3125 8.800781 L 10.792969 8.921875 L 10.792969 9.710938 L 10.511719 9.640625 C 10.3125 9.558594 10.070312 9.71875 10.03125 9.921875 C 9.953125 10.121094 10.113281 10.359375 10.3125 10.398438 L 10.792969 10.519531 L 10.792969 11.308594 L 10.511719 11.238281 C 10.3125 11.160156 10.070312 11.320312 10.03125 11.519531 C 9.953125 11.71875 10.113281 11.960938 10.3125 12 L 10.792969 12.121094 L 10.792969 12.910156 L 10.511719 12.839844 C 10.3125 12.761719 10.070312 12.921875 10.03125 13.121094 C 9.953125 13.320312 10.113281 13.558594 10.3125 13.601562 L 10.792969 13.71875 L 10.792969 14.511719 L 10.511719 14.441406 C 10.3125 14.359375 10.070312 14.519531 10.03125 14.71875 C 9.953125 14.921875 10.113281 15.160156 10.3125 15.199219 L 10.792969 15.320312 L 10.792969 16.109375 L 10.511719 16.039062 C 10.3125 15.960938 10.070312 16.121094 10.03125 16.320312 C 9.953125 16.519531 10.113281 16.761719 10.3125 16.800781 L 10.792969 16.917969 L 10.792969 17.710938 L 10.511719 17.640625 C 10.3125 17.558594 10.070312 17.71875 10.03125 17.917969 C 9.953125 18.121094 10.113281 18.359375 10.3125 18.398438 L 10.792969 18.519531 L 10.792969 18.679688 C 10.792969 18.890625 10.796875 19.101562 10.804688 19.3125 L 10.511719 19.238281 C 10.3125 19.160156 10.070312 19.320312 10.03125 19.519531 C 9.953125 19.71875 10.113281 19.960938 10.3125 20 L 10.859375 20.136719 C 10.972656 21.351562 11.230469 22.546875 11.632812 23.71875 C 11.671875 23.878906 11.832031 24 11.992188 24 C 12.152344 24 12.3125 23.878906 12.390625 23.71875 C 12.707031 22.722656 12.933594 21.714844 13.0625 20.6875 L 13.511719 20.800781 C 13.511719 20.800781 13.550781 20.800781 13.589844 20.800781 C 13.792969 20.800781 13.953125 20.679688 13.992188 20.519531 C 14.070312 20.320312 13.910156 20.078125 13.710938 20.039062 L 13.144531 19.898438 C 13.164062 19.640625 13.175781 19.378906 13.183594 19.117188 L 13.511719 19.199219 C 13.511719 19.199219 13.550781 19.199219 13.589844 19.199219 C 13.792969 19.199219 13.953125 19.078125 13.992188 18.917969 C 14.070312 18.71875 13.910156 18.480469 13.710938 18.441406 L 13.191406 18.308594 L 13.191406 17.519531 L 13.511719 17.601562 C 13.511719 17.601562 13.550781 17.601562 13.589844 17.601562 C 13.792969 17.601562 13.953125 17.480469 13.992188 17.320312 C 14.070312 17.121094 13.910156 16.878906 13.710938 16.839844 L 13.191406 16.710938 L 13.191406 15.921875 L 13.511719 16 C 13.511719 16 13.550781 16 13.589844 16 C 13.792969 16 13.953125 15.878906 13.992188 15.71875 C 14.070312 15.519531 13.910156 15.28125 13.710938 15.238281 L 13.191406 15.109375 L 13.191406 14.320312 L 13.511719 14.398438 C 13.511719 14.398438 13.550781 14.398438 13.589844 14.398438 C 13.792969 14.398438 13.953125 14.28125 13.992188 14.121094 C 14.070312 13.921875 13.910156 13.679688 13.710938 13.640625 L 13.191406 13.511719 L 13.191406 12.71875 L 13.511719 12.800781 C 13.511719 12.800781 13.550781 12.800781 13.589844 12.800781 C 13.792969 12.800781 13.953125 12.679688 13.992188 12.519531 C 14.070312 12.320312 13.910156 12.078125 13.710938 12.039062 L 13.191406 11.910156 L 13.191406 11.121094 L 13.511719 11.199219 C 13.511719 11.199219 13.550781 11.199219 13.589844 11.199219 C 13.792969 11.199219 13.953125 11.078125 13.992188 10.921875 C 14.070312 10.71875 13.910156 10.480469 13.710938 10.441406 L 13.191406 10.308594 L 13.191406 9.519531 L 13.511719 9.601562 C 13.511719 9.601562 13.550781 9.601562 13.589844 9.601562 C 13.792969 9.601562 13.953125 9.480469 13.992188 9.320312 C 14.070312 9.121094 13.910156 8.878906 13.710938 8.839844 L 13.191406 8.710938 L 13.191406 7.921875 L 13.511719 8 C 13.511719 8 13.550781 8 13.589844 8 C 13.792969 8 13.953125 7.878906 13.992188 7.71875 C 14.070312 7.519531 13.910156 7.28125 13.710938 7.238281 L 13.191406 7.109375 L 13.191406 6.320312 L 13.511719 6.398438 C 13.511719 6.398438 13.550781 6.398438 13.589844 6.398438 C 13.792969 6.398438 13.953125 6.28125 13.992188 6.121094 C 14.070312 5.921875 13.910156 5.679688 13.710938 5.640625 L 13.191406 5.511719 L 13.191406 4.71875 L 13.511719 4.800781 C 13.511719 4.800781 13.550781 4.800781 13.59375 4.800781 C 13.792969 4.800781 13.953125 4.679688 13.992188 4.480469 C 14.070312 4.28125 13.910156 4.039062 13.710938 4 L 13.191406 3.871094 L 13.191406 2.398438 Z M 9.992188 0.800781 L 13.992188 0.800781 L 13.390625 1.601562 L 10.589844 1.601562 Z M 11.992188 22.160156 C 11.84375 21.554688 11.742188 20.949219 11.679688 20.339844 L 12.289062 20.496094 C 12.226562 21.058594 12.128906 21.613281 11.992188 22.160156 Z M 12.359375 19.703125 L 11.613281 19.515625 C 11.597656 19.25 11.59375 18.984375 11.589844 18.71875 L 12.390625 18.917969 C 12.386719 19.183594 12.375 19.441406 12.359375 19.703125 Z M 12.390625 18.109375 L 11.589844 17.910156 L 11.589844 17.121094 L 12.390625 17.320312 Z M 12.390625 16.511719 L 11.589844 16.308594 L 11.589844 15.519531 L 12.390625 15.71875 Z M 12.390625 14.910156 L 11.589844 14.710938 L 11.589844 13.921875 L 12.390625 14.121094 Z M 12.390625 13.308594 L 11.589844 13.109375 L 11.589844 12.320312 L 12.390625 12.519531 Z M 12.390625 11.710938 L 11.589844 11.511719 L 11.589844 10.71875 L 12.390625 10.921875 Z M 12.390625 10.109375 L 11.589844 9.910156 L 11.589844 9.121094 L 12.390625 9.320312 Z M 12.390625 8.511719 L 11.589844 8.308594 L 11.589844 7.519531 L 12.390625 7.71875 Z M 12.390625 6.910156 L 11.589844 6.710938 L 11.589844 5.921875 L 12.390625 6.121094 Z M 12.390625 5.308594 L 11.589844 5.109375 L 11.589844 4.320312 L 12.390625 4.519531 Z M 12.390625 3.671875 L 11.589844 3.46875 L 11.589844 2.398438 L 12.390625 2.398438 Z M 12.390625 3.671875"/>
</svg>

<svg xmlns="http://www.w3.org/2000/svg" width="32" height="32" viewBox="0 0 24 24">
    <path d="M13.59 2.398c.12 0 .242-.039.32-.16l1.2-1.597c.081-.121.12-.282.042-.403C15.07.078 14.953 0 14.793 0H9.191c-.16 0-.32.121-.359.238a.489.489 0 0 0 .04.403l1.198 1.597c.082.121.2.16.32.16h.403v.872l-.281-.07a.446.446 0 0 0-.52.32c-.039.199.078.402.32.48l.481.121v.79l-.281-.071c-.2-.078-.442.082-.48.281-.079.2.081.438.28.48l.481.118v.793l-.281-.07c-.2-.083-.442.078-.48.277-.079.203.081.441.28.48l.481.121v.79l-.281-.07c-.2-.08-.442.081-.48.28-.079.2.081.442.28.48l.481.122v.789l-.281-.07c-.2-.082-.442.078-.48.28-.079.2.081.438.28.477l.481.122v.789l-.281-.07c-.2-.079-.442.081-.48.28-.079.2.081.442.28.481l.481.121v.79l-.281-.071c-.2-.078-.442.082-.48.281-.079.2.081.438.28.48l.481.118v.793l-.281-.07c-.2-.083-.442.078-.48.277-.079.203.081.441.28.48l.481.121v.79l-.281-.07c-.2-.08-.442.081-.48.28-.079.2.081.442.28.48l.481.118v.793l-.281-.07c-.2-.082-.442.078-.48.277-.079.203.081.441.28.48l.481.122v.16c0 .21.004.422.012.633l-.293-.075c-.2-.078-.442.082-.48.282-.079.199.081.44.28.48l.547.137c.114 1.215.371 2.41.774 3.582.039.16.199.281.36.281.16 0 .32-.121.398-.281.316-.996.543-2.004.671-3.032l.45.114h.078c.203 0 .363-.121.402-.281.078-.2-.082-.442-.281-.48l-.566-.142c.02-.257.03-.52.039-.78l.328.081h.078c.203 0 .363-.12.402-.281.078-.2-.082-.438-.281-.477l-.52-.132v-.79l.32.083h.079c.203 0 .363-.122.402-.282.078-.199-.082-.441-.281-.48l-.52-.13v-.788l.32.078h.079c.203 0 .363-.121.402-.281.078-.2-.082-.438-.281-.48l-.52-.13v-.789l.32.078h.079c.203 0 .363-.117.402-.277.078-.2-.082-.441-.281-.48l-.52-.13v-.792l.32.082h.079c.203 0 .363-.121.402-.281.078-.2-.082-.442-.281-.48l-.52-.13v-.789l.32.078h.079c.203 0 .363-.12.402-.277.078-.203-.082-.442-.281-.48l-.52-.133v-.79l.32.083h.079c.203 0 .363-.122.402-.282.078-.199-.082-.441-.281-.48l-.52-.13v-.788l.32.078h.079c.203 0 .363-.121.402-.281.078-.2-.082-.438-.281-.48l-.52-.13V6.32l.32.078h.079c.203 0 .363-.117.402-.277.078-.2-.082-.441-.281-.48l-.52-.13V4.72l.32.082h.083c.199 0 .36-.121.398-.32.078-.2-.082-.442-.281-.481l-.52-.129V2.398zM9.992.801h4l-.601.8H10.59zm2 21.36c-.148-.606-.25-1.212-.312-1.821l.61.156c-.063.563-.161 1.117-.298 1.664zm.367-2.458l-.746-.187c-.015-.266-.02-.532-.023-.797l.8.199c-.003.266-.015.523-.03.785zm.032-1.594l-.801-.199v-.789l.8.2zm0-1.597l-.801-.203v-.79l.8.2zm0-1.602l-.801-.2v-.788l.8.2zm0-1.601l-.801-.2v-.789l.8.2zm0-1.598l-.801-.2v-.792l.8.203zm0-1.602l-.801-.199v-.789l.8.2zm0-1.597l-.801-.203v-.79l.8.2zm0-1.602l-.801-.2v-.788l.8.2zm0-1.601l-.801-.2V4.32l.8.2zm0-1.637l-.801-.203v-1.07h.8zm0 0"/>
</svg>
